svg/color/wlxt.svg

<svg viewBox="0 0 37 32" fill="none" xmlns="http://www.w3.org/2000/svg">
<g clip-path="url(#clip0_1494_170126)">
<path d="M32.6532 31.4776H4.31033C1.95931 31.4776 0.0654297 29.3878 0.0654297 26.7755V4.50612C0.0654297 1.95918 1.95931 -0.130615 4.31033 -0.130615H32.6532C35.0042 -0.130615 36.8981 1.95918 36.8981 4.50612V26.7755C36.8981 29.3878 35.0042 31.4776 32.6532 31.4776ZM4.31033 0.653058C2.41645 0.653058 0.849103 2.35102 0.849103 4.50612V26.7755C0.849103 28.9306 2.41645 30.6286 4.31033 30.6286H32.6532C34.5471 30.6286 36.1144 28.8653 36.1144 26.7755V4.50612C36.1144 2.35102 34.5471 0.653058 32.6532 0.653058H4.31033Z" fill="#0054B8"/>
<path d="M13.3229 7.11841H10.9066L5.35559 18.0898C5.29028 18.2857 5.35559 18.5469 5.61681 18.6122C5.68212 18.6122 5.74742 18.6122 5.74742 18.6122H8.16375C8.22906 18.6122 8.29436 18.5469 8.35967 18.4816L13.6495 7.64086C13.7801 7.44494 13.6495 7.18371 13.4535 7.11841C13.3882 7.11841 13.3882 7.11841 13.3229 7.11841Z" fill="#0054B8"/>
<path d="M14.8248 12.9307H12.4085L6.8575 23.9021C6.79219 24.0981 6.8575 24.3593 7.05342 24.4246C7.11872 24.4246 7.18403 24.4246 7.18403 24.4899H9.60035L15.1514 13.5185C15.2167 13.3225 15.1514 13.0613 14.9555 12.996C14.9555 12.9307 14.8902 12.9307 14.8248 12.9307Z" fill="#0054B8"/>
<path d="M23.7066 12.9307H21.2903L15.6739 23.9021C15.6086 24.0981 15.6739 24.3593 15.9352 24.4246C16.0005 24.4246 16.0658 24.4246 16.0658 24.4899H18.3515L23.9025 13.5185C24.0331 13.3225 23.9678 13.0613 23.7066 12.9307Z" fill="#0054B8"/>
<path d="M17.0454 18.6122L22.5964 7.64086C22.6617 7.44494 22.5964 7.18371 22.3352 7.11841C22.2699 7.11841 22.2046 7.11841 22.2046 7.11841H19.7883L14.172 18.0898C14.1066 18.2857 14.172 18.5469 14.3679 18.6122C14.4332 18.6122 14.4985 18.6122 14.4985 18.6122H17.0454Z" fill="#0054B8"/>
<path d="M28.6701 7.11841L23.1844 18.0898C23.0538 18.2857 23.1844 18.5469 23.3803 18.6776C23.4456 18.6776 23.5109 18.7429 23.5762 18.7429H25.9926L31.5436 7.77147C31.6089 7.57555 31.5436 7.31433 31.2824 7.24902C31.2171 7.24902 31.1518 7.24902 31.1518 7.24902H28.7354L28.6701 7.11841Z" fill="#0054B8"/>
</g>
<defs>
<clipPath id="clip0_1494_170126">
<rect width="37" height="32" fill="white"/>
</clipPath>
</defs>
</svg>

<svg xmlns="http://www.w3.org/2000/svg" fill="none" viewBox="0 0 37 32"><g fill="#0054B8" clip-path="url(#wlxt_svg-a)"><path d="M32.653 31.478H4.31c-2.35 0-4.245-2.09-4.245-4.703V4.507C.065 1.96 1.96-.13 4.31-.13h28.343c2.351 0 4.245 2.09 4.245 4.637v22.27c0 2.612-1.894 4.702-4.245 4.702M4.31.653C2.416.653.85 2.351.85 4.506v22.27c0 2.155 1.566 3.853 3.46 3.853h28.343c1.894 0 3.461-1.764 3.461-3.854V4.507c0-2.155-1.567-3.853-3.46-3.853z"/><path d="M13.323 7.118h-2.416L5.356 18.09c-.066.196 0 .457.26.522h2.548c.065 0 .13-.065.196-.13L13.65 7.64c.13-.196 0-.457-.197-.523zm1.502 5.812h-2.416L6.857 23.903c-.065.196 0 .457.196.523.066 0 .131 0 .131.065H9.6l5.551-10.971c.066-.197 0-.458-.195-.523 0-.065-.066-.065-.131-.065m8.882-.002H21.29l-5.616 10.972c-.065.196 0 .457.261.523.065 0 .13 0 .13.065h2.287l5.55-10.971c.131-.197.066-.458-.195-.588m-6.662 5.681 5.551-10.971c.066-.196 0-.457-.26-.523h-2.548L14.172 18.09c-.065.196 0 .457.196.522zM28.67 7.118 23.184 18.09c-.13.196 0 .457.196.588.066 0 .13.065.196.065h2.417l5.55-10.972c.066-.195 0-.457-.26-.522h-2.548z"/></g><defs><clipPath id="wlxt_svg-a"><path fill="#fff" d="M0 0h37v32H0z"/></clipPath></defs></svg>
